app/img/icons/telegram.svg

<svg width="13" height="12" viewBox="0 0 13 12" fill="none" xmlns="http://www.w3.org/2000/svg">
<path d="M11.3119 0.97998L0.566428 5.12362C-0.166905 5.41816 -0.162663 5.82725 0.431883 6.00968L3.19067 6.87028L9.5737 2.84301C9.87552 2.65937 10.1513 2.75816 9.92461 2.95937L4.7531 7.62665H4.75188L4.7531 7.62725L4.56279 10.4709C4.84158 10.4709 4.96461 10.343 5.12097 10.1921L6.46097 8.88907L9.24825 10.9479C9.76219 11.2309 10.1313 11.0854 10.2592 10.4721L12.0889 1.84907C12.2761 1.09816 11.8022 0.758162 11.3119 0.97998Z" fill="white"/>
</svg>

<svg width="13" height="12" fill="none" xmlns="http://www.w3.org/2000/svg"><path d="M11.312.98L.566 5.124c-.733.294-.729.703-.134.886l2.759.86 6.383-4.027c.302-.184.577-.085.35.116l-5.17 4.668h-.002.001l-.19 2.844c.279 0 .402-.128.558-.279l1.34-1.303 2.787 2.059c.514.283.883.137 1.011-.476l1.83-8.623c.187-.75-.287-1.09-.777-.869z" fill="#fff"/></svg>
